brandFactory_export/2.Regular/Editar2_2Regular.svg

<?xml version="1.0" encoding="UTF-8"?>
<svg width="24px" height="24px" viewBox="0 0 24 24" version="1.1" xmlns="http://www.w3.org/2000/svg" xmlns:xlink="http://www.w3.org/1999/xlink">
    <title>2.Regular/Editar2_2Regular</title>
    <g id="Symbols" stroke="none" stroke-width="1" fill="none" fill-rule="evenodd">
        <g id="2.Regular/Editar2_2Regular" fill="#5CB615" fill-rule="nonzero">
            <path d="M21.6201681,21.5193277 C22.1512605,21.5193277 22.5848739,21.9697479 22.5848739,22.5243697 C22.5848739,23.0823529 22.1512605,23.5327731 21.6201681,23.5327731 L2.97815126,23.5327731 C2.44705882,23.5327731 2.01344538,23.0823529 2.01344538,22.5243697 C2.01344538,21.9697479 2.44705882,21.5193277 2.97815126,21.5193277 L21.6201681,21.5193277 Z M5.81512605,12.8941176 L4.03361345,18.5781513 L4.08739496,18.7159664 L4.09411765,18.7159664 L9.34117647,16.8470588 C11.8756303,14.4369748 19.3378151,7.30756303 19.8420168,6.77310924 C20.3394958,6.26218487 20.6184874,5.57647059 20.6151561,4.8605042 C20.6117647,4.1210084 20.3394958,3.40840336 19.8487395,2.85378151 C19.3815126,2.34621849 18.7260504,2.05378151 18.0369748,2.04033613 C17.3915966,2.04033613 16.7865546,2.32268908 16.2957983,2.85378151 C15.7176471,3.47226891 6.21848739,12.5109244 5.81512605,12.8941176 Z M4.08403361,20.7294118 C3.55630252,20.7294118 3.03865546,20.497479 2.66554622,20.097479 C2.13781513,19.5193277 1.95966387,18.702521 2.19831933,17.9563025 L3.95630252,12.312605 C4.06386555,11.9630252 4.25882353,11.6470588 4.5210084,11.4016807 C9.2907563,6.8605042 14.5546218,1.82857143 14.9042017,1.45210084 C15.7579832,0.531092437 16.8672269,0.0235294118 18.0336134,0.0235294118 C19.2235294,0.0235294118 20.389916,0.544537815 21.2302521,1.4487395 C22.0739496,2.38655462 22.5411941,3.6 22.5411941,4.8605042 C22.5445378,6.09747899 22.0672269,7.28403361 21.2134454,8.17815126 C20.5512605,8.88403361 10.7529412,18.2252101 10.6554622,18.3159664 C10.4571429,18.5109244 10.2218487,18.6554622 9.96302521,18.7462185 L4.71596639,20.6151261 C4.51428571,20.692437 4.30252101,20.7294118 4.08403361,20.7294118 Z" id="Editar2_2Regular"></path>
        </g>
    </g>
</svg>

<svg width="24" height="24" viewBox="0 0 24 24" xmlns="http://www.w3.org/2000/svg"><path d="M21.62 21.52c.531 0 .965.45.965 1.004 0 .558-.434 1.009-.965 1.009H2.978c-.53 0-.965-.45-.965-1.009 0-.554.434-1.005.965-1.005H21.62zM5.815 12.893l-1.781 5.684.053.138h.007l5.247-1.869c2.535-2.41 9.997-9.54 10.501-10.074.497-.51.776-1.197.773-1.912a3.049 3.049 0 00-.766-2.007 2.529 2.529 0 00-1.812-.814c-.645 0-1.25.283-1.741.814-.578.618-10.078 9.657-10.48 10.04zM4.084 20.73a1.957 1.957 0 01-1.418-.632 2.188 2.188 0 01-.468-2.14l1.758-5.644a2.09 2.09 0 01.565-.911c4.77-4.541 10.034-9.573 10.383-9.95.854-.92 1.963-1.428 3.13-1.428 1.19 0 2.356.52 3.196 1.425a5.099 5.099 0 011.311 3.412 4.784 4.784 0 01-1.328 3.317c-.662.706-10.46 10.047-10.558 10.138-.198.195-.433.34-.692.43l-5.247 1.87a1.753 1.753 0 01-.632.113z" fill="#5CB615" fill-rule="nonzero"/></svg>
